X: 42546
T: When Daylight Shines
R: jig
M: 6/8
K: Gmajor
|:d|gfe dcB|d2c A2B|cBc e2d|B3 GBd|
gfe dcB|d2c A2B|cBc e2F|G4G:|
D|G2A B2c|d3 B2d|e2d c2d|B3 G2D|
G2A B2c|d3 g2g|fed cBA|G4G d|
dcB BAG|F2A e2d|ded c2d|B3 GBd|
dcB BAG|F2A e2c|d2B dcA|G4G||

